images/bc.svg

<?xml version="1.0" encoding="UTF-8" standalone="no"?><!DOCTYPE svg PUBLIC "-//W3C//DTD SVG 1.1//EN" "http://www.w3.org/Graphics/SVG/1.1/DTD/svg11.dtd"><svg width="100%" height="100%" viewBox="0 0 57 57" version="1.1" xmlns="http://www.w3.org/2000/svg" xmlns:xlink="http://www.w3.org/1999/xlink" xml:space="preserve" xmlns:serif="http://www.serif.com/" style="fill-rule:evenodd;clip-rule:evenodd;"><ellipse id="cir_1" cx="28.985" cy="29.244" rx="24.985" ry="25.244" style="fill:#666;"/><circle id="cir_11" serif:id="cir_1" cx="28.5" cy="28.5" r="24.5" style="fill:#fafafa;"/><circle id="cir_2" cx="28.5" cy="28.5" r="22.05" style="fill:#fafafa;stroke:#000;stroke-width:2px;"/><g><path d="M22.36,20.613c-0.653,0.297 -3.948,1.083 -5.536,1.321c-1.944,0.282 -2.255,0.667 -1.187,1.469c0.252,0.178 0.727,0.311 1.38,0.371l0.995,0.074l-0.089,0.579c-0.134,0.771 -0.891,2.671 -1.514,3.725c-1.113,1.899 -3.428,4.615 -4.793,5.594c-1.069,0.772 -1.188,1.232 -0.342,1.306c1.024,0.104 2.939,-0.861 4.408,-2.211c0.46,-0.43 0.682,-0.549 0.727,-0.416c0.044,0.119 0.178,0.98 0.312,1.915c0.326,2.374 0.356,2.478 0.771,2.968c0.445,0.549 0.698,0.564 1.143,0.074c0.297,-0.326 0.579,-0.401 2.033,-0.594c0.92,-0.118 1.959,-0.222 2.3,-0.222c0.802,0 1.083,-0.297 0.757,-0.802c-0.208,-0.311 -0.193,-0.46 0.208,-1.825c0.504,-1.751 0.801,-2.508 1.187,-2.998c0.356,-0.445 0.371,-1.231 0.03,-1.543c-0.342,-0.297 -1.514,-0.801 -2.152,-0.92c-0.341,-0.059 -0.757,0.015 -1.395,0.282c-0.772,0.312 -2.642,0.831 -3.013,0.831c-0.074,0 0.223,-0.683 0.653,-1.528c0.416,-0.832 0.817,-1.648 0.861,-1.811c0.045,-0.163 0.267,-0.594 0.475,-0.965c0.371,-0.638 0.415,-1.068 0.163,-1.647c-0.089,-0.193 0.015,-0.267 0.534,-0.341c1.158,-0.178 3.146,-0.712 3.725,-0.994c0.905,-0.475 0.683,-1.084 -0.608,-1.633c-0.742,-0.326 -1.395,-0.341 -2.033,-0.059Zm-0.371,10.343c0,0.297 -0.445,3.132 -0.52,3.384c-0.044,0.148 -0.489,0.326 -1.291,0.49c-0.668,0.133 -1.217,0.237 -1.246,0.222c-0.089,-0.089 -0.401,-3.68 -0.327,-3.754c0.119,-0.119 2.167,-0.49 2.835,-0.505c0.341,-0.015 0.549,0.059 0.549,0.163Z" style="fill-rule:nonzero;"/><path d="M29.498,14.543c-0.149,0.134 -0.238,0.49 -0.238,0.846c0,2.286 -2.522,7.435 -5.342,10.937c-0.371,0.46 -0.267,0.891 0.208,0.891c0.697,0 2.597,-1.499 4.081,-3.221c0.786,-0.905 0.846,-0.949 1.35,-0.86c0.312,0.059 1.158,-0.03 2.018,-0.208c1.766,-0.356 4.823,-0.668 5.313,-0.549c0.327,0.074 0.371,0.193 0.475,1.083c0.134,1.247 -0.148,4.853 -0.46,6.055c-0.401,1.499 -0.816,1.706 -2.078,1.024c-1.261,-0.668 -1.454,-0.178 -0.534,1.395c0.312,0.549 0.712,1.306 0.876,1.692c0.578,1.335 1.498,1.335 2.849,0c1.172,-1.158 1.439,-1.945 1.721,-5.002c0.342,-3.813 0.475,-4.763 0.802,-5.55c0.297,-0.682 0.311,-0.757 0.074,-1.202c-0.252,-0.504 -2.3,-1.929 -2.76,-1.929c-0.149,0 -0.431,0.059 -0.638,0.134c-0.416,0.163 -6.263,1.202 -6.753,1.202c-0.311,0 -0.311,-0.015 0.134,-0.787c0.252,-0.415 0.727,-1.306 1.054,-1.944c0.341,-0.653 0.742,-1.35 0.89,-1.573c0.237,-0.297 0.267,-0.475 0.148,-0.757c-0.178,-0.49 -1.098,-1.291 -1.855,-1.632c-0.742,-0.342 -1.038,-0.356 -1.335,-0.045Z" style="fill-rule:nonzero;"/><path d="M31.041,25.881c-0.445,0.237 -1.306,0.549 -1.914,0.683c-0.935,0.207 -1.217,0.222 -1.811,0.074c-0.4,-0.104 -0.86,-0.149 -1.024,-0.089c-0.296,0.089 -0.311,0.178 -0.237,0.786c0.059,0.386 0.163,2.864 0.237,5.506c0.06,2.656 0.164,5.046 0.223,5.342c0.341,1.796 1.87,3.206 4.452,4.126c1.157,0.401 1.261,0.415 4.378,0.401c3.057,0 3.25,-0.015 4.526,-0.416c2.434,-0.742 4.17,-1.914 4.437,-2.998c0.074,-0.252 -0.059,-0.727 -0.415,-1.513c-0.282,-0.624 -0.653,-1.766 -0.817,-2.523c-0.356,-1.632 -0.371,-1.662 -0.831,-1.662c-0.415,0 -0.504,0.267 -0.875,2.419c-0.327,1.884 -0.668,2.404 -2.004,3.072c-1.083,0.534 -2.567,0.786 -4.986,0.801c-3.383,0.015 -4.853,-0.416 -5.476,-1.618c-0.267,-0.504 -0.326,-0.92 -0.356,-2.597l-0.059,-2.018l2.359,-0.282c2.018,-0.252 2.345,-0.341 2.389,-0.564c0.03,-0.148 -0.044,-0.386 -0.178,-0.534c-0.207,-0.223 -0.178,-0.401 0.357,-1.87c0.326,-0.89 0.801,-1.87 1.038,-2.181c0.505,-0.624 0.579,-1.291 0.178,-1.647c-0.326,-0.312 -1.751,-0.95 -2.329,-1.054c-0.327,-0.059 -0.668,0.044 -1.262,0.356Zm0.134,2.553c0,0.267 -0.119,1.023 -0.253,1.662l-0.252,1.187l-0.816,0.178c-0.445,0.104 -0.905,0.193 -0.994,0.208c-0.238,0 -0.253,-1.039 -0.03,-2.33c0.163,-0.935 0.163,-0.935 0.786,-1.084c0.327,-0.089 0.683,-0.192 0.757,-0.222c0.089,-0.03 0.297,-0.06 0.49,-0.06c0.282,-0.014 0.327,0.06 0.312,0.461Z" style="fill-rule:nonzero;"/></g></svg>

<?xml version="1.0" encoding="UTF-8" standalone="no"?>
<!DOCTYPE svg PUBLIC "-//W3C//DTD SVG 1.1//EN" "http://www.w3.org/Graphics/SVG/1.1/DTD/svg11.dtd">
<svg width="100%" height="100%" viewBox="0 0 57 57" version="1.1" xmlns="http://www.w3.org/2000/svg" xmlns:xlink="http://www.w3.org/1999/xlink" xml:space="preserve" xmlns:serif="http://www.serif.com/" style="fill-rule:evenodd;clip-rule:evenodd;">
    <g id="cir_1" transform="matrix(1.0198,0,0,1.03035,-0.0791987,-0.121408)">
        <circle cx="28.5" cy="28.5" r="24.5" style="fill:rgb(119,119,119);"/>
    </g>
    <circle id="cir_11" serif:id="cir_1" cx="28.5" cy="28.5" r="24.5" style="fill:rgb(250,250,250);"/>
    <circle id="cir_2" cx="28.5" cy="28.5" r="22.05" style="fill:rgb(250,250,250);stroke:black;stroke-width:2px;"/>
    <g>
        <path d="M22.36,20.613C21.707,20.91 18.412,21.696 16.824,21.934C14.88,22.216 14.569,22.601 15.637,23.403C15.889,23.581 16.364,23.714 17.017,23.774L18.012,23.848L17.923,24.427C17.789,25.198 17.032,27.098 16.409,28.152C15.296,30.051 12.981,32.767 11.616,33.746C10.547,34.518 10.428,34.978 11.274,35.052C12.298,35.156 14.213,34.191 15.682,32.841C16.142,32.411 16.364,32.292 16.409,32.425C16.453,32.544 16.587,33.405 16.721,34.34C17.047,36.714 17.077,36.818 17.492,37.308C17.937,37.857 18.19,37.872 18.635,37.382C18.932,37.056 19.214,36.981 20.668,36.788C21.588,36.67 22.627,36.566 22.968,36.566C23.77,36.566 24.051,36.269 23.725,35.764C23.517,35.453 23.532,35.304 23.933,33.939C24.437,32.188 24.734,31.431 25.12,30.941C25.476,30.496 25.491,29.71 25.15,29.398C24.808,29.101 23.636,28.597 22.998,28.478C22.657,28.419 22.241,28.493 21.603,28.76C20.831,29.072 18.961,29.591 18.59,29.591C18.516,29.591 18.813,28.908 19.243,28.063C19.659,27.231 20.06,26.415 20.104,26.252C20.149,26.089 20.371,25.658 20.579,25.287C20.95,24.649 20.994,24.219 20.742,23.64C20.653,23.447 20.757,23.373 21.276,23.299C22.434,23.121 24.422,22.587 25.001,22.305C25.906,21.83 25.684,21.221 24.393,20.672C23.651,20.346 22.998,20.331 22.36,20.613ZM21.989,30.956C21.989,31.253 21.544,34.088 21.469,34.34C21.425,34.488 20.98,34.666 20.178,34.83C19.51,34.963 18.961,35.067 18.932,35.052C18.843,34.963 18.531,31.372 18.605,31.298C18.724,31.179 20.772,30.808 21.44,30.793C21.781,30.778 21.989,30.852 21.989,30.956Z" style="fill-rule:nonzero;"/>
        <path d="M29.498,14.543C29.349,14.677 29.26,15.033 29.26,15.389C29.26,17.675 26.738,22.824 23.918,26.326C23.547,26.786 23.651,27.217 24.126,27.217C24.823,27.217 26.723,25.718 28.207,23.996C28.993,23.091 29.053,23.047 29.557,23.136C29.869,23.195 30.715,23.106 31.575,22.928C33.341,22.572 36.398,22.26 36.888,22.379C37.215,22.453 37.259,22.572 37.363,23.462C37.497,24.709 37.215,28.315 36.903,29.517C36.502,31.016 36.087,31.223 34.825,30.541C33.564,29.873 33.371,30.363 34.291,31.936C34.603,32.485 35.003,33.242 35.167,33.628C35.745,34.963 36.665,34.963 38.016,33.628C39.188,32.47 39.455,31.683 39.737,28.626C40.079,24.813 40.212,23.863 40.539,23.076C40.836,22.394 40.85,22.319 40.613,21.874C40.361,21.37 38.313,19.945 37.853,19.945C37.704,19.945 37.422,20.004 37.215,20.079C36.799,20.242 30.952,21.281 30.462,21.281C30.151,21.281 30.151,21.266 30.596,20.494C30.848,20.079 31.323,19.188 31.65,18.55C31.991,17.897 32.392,17.2 32.54,16.977C32.777,16.68 32.807,16.502 32.688,16.22C32.51,15.73 31.59,14.929 30.833,14.588C30.091,14.246 29.795,14.232 29.498,14.543Z" style="fill-rule:nonzero;"/>
        <path d="M31.041,25.881C30.596,26.118 29.735,26.43 29.127,26.564C28.192,26.771 27.91,26.786 27.316,26.638C26.916,26.534 26.456,26.489 26.292,26.549C25.996,26.638 25.981,26.727 26.055,27.335C26.114,27.721 26.218,30.199 26.292,32.841C26.352,35.497 26.456,37.887 26.515,38.183C26.856,39.979 28.385,41.389 30.967,42.309C32.124,42.71 32.228,42.724 35.345,42.71C38.402,42.71 38.595,42.695 39.871,42.294C42.305,41.552 44.041,40.38 44.308,39.296C44.382,39.044 44.249,38.569 43.893,37.783C43.611,37.159 43.24,36.017 43.076,35.26C42.72,33.628 42.705,33.598 42.245,33.598C41.83,33.598 41.741,33.865 41.37,36.017C41.043,37.901 40.702,38.421 39.366,39.089C38.283,39.623 36.799,39.875 34.38,39.89C30.997,39.905 29.527,39.474 28.904,38.272C28.637,37.768 28.578,37.352 28.548,35.675L28.489,33.657L30.848,33.375C32.866,33.123 33.193,33.034 33.237,32.811C33.267,32.663 33.193,32.425 33.059,32.277C32.852,32.054 32.881,31.876 33.416,30.407C33.742,29.517 34.217,28.537 34.454,28.226C34.959,27.602 35.033,26.935 34.632,26.579C34.306,26.267 32.881,25.629 32.303,25.525C31.976,25.466 31.635,25.569 31.041,25.881ZM31.175,28.434C31.175,28.701 31.056,29.457 30.922,30.096L30.67,31.283L29.854,31.461C29.409,31.565 28.949,31.654 28.86,31.669C28.622,31.669 28.607,30.63 28.83,29.339C28.993,28.404 28.993,28.404 29.616,28.255C29.943,28.166 30.299,28.063 30.373,28.033C30.462,28.003 30.67,27.973 30.863,27.973C31.145,27.959 31.19,28.033 31.175,28.434Z" style="fill-rule:nonzero;"/>
    </g>
</svg>
